X:1
T:Valse
T:no. 6 from The Sleeping Beauty, op. 66 arr. for piano, 4 hands
T:Pyotr Ilyich Tchaikovsky arr. Sergei Rachmaninoff
%%score { 1 | 2 } { 3 | 4 } 5
L:1/8
Q:1/4=80
M:3/4
K:Bb
V:1 treble nm="Primo"
V:2 treble 
V:3 bass nm="Secondo"
V:4 bass 
V:5 treble+8 transpose=-2 nm="B♭ Clarinet" snm="B♭ Cl."
V:1
"^Tempo di Valse" b3 f g a | b3 f g a | b3 f g a | b2 _a2 g2 | c'3 g a =b | c'3 g a =b | %6
 c'3 g a =b | c'2 b2 a2 | d'3 a =b _d' | d' a a f z2 | e'3 b c' d' | e' b b g z2 | =e'3 =b c' d' | %13
 =e'3 =b c' d' | =e'3 =b c' d' | =e'3 c' d' e' | f' c' c' a a f | f' =b b _a a f | f' b b g g f | %19
 f' c' c' a a f | f' c' c' a a f | f' =b b _a a f | f' b b g g f | f' c' c' a a f | %24
 f' =b b _a a f | f' c' c' a a f | f' =b b _a a f | f' c' c' a a f | c' a a f z2 | a f f c z2 | %30
 f c c A z2 | c A A F z2 | z A A c c f | f a a c' c' f' | f'2 [b_d'f']2 [gbf']2 | [ac'f']2 z2 z2 | %36
 z6 | z6 | z6 | z6 | z6 | B6 | A6 | B4 .G2 | A2 B2 .G2 | A4 c2 | d4 .=B2 | c6- | c6 | f6 | =e6 | %51
 e4 .c2 | e2 d2 .c2 | g4 .f2 | e4 .d2 | d2 c2 =B2 | .c2 G2 A2 | B6 | A6 | B4 .G2 | A2 B2 .G2 | %61
 A4 .c2 | c4 .=B2 | c6- | c6 | d4 e2- | e2 =e4 | g4 f2- | f2 a4 | b4 a2- | a2 g4 | f2 =e f a g | %72
 f d3 z2 | z2 f4 | g4 a2 | b2 _d =d e d | .f2 =B c d c | .d2 A B c B | d c B A B G | .F2 =e f g f | %80
 a g f =e f _d | .d2 f4 | g4 a2 | b2 _d =d e d | .f2 =B c d c | .d2 A B c B | d c B A G F | %87
 z2 e =e f e | a g f =e d c | .f2 f4 | g4 a2 | b2 _d =d e d | .f2 =B c d c | .d2 A B c B | %94
 d c B A B G | .F2 =e f g f | a g f =e f _d | .d2 f4 | g4 a2 | b2 _d =d e d | .f2 =B c d c | %101
 .d2 A B c B | d c B A G F | z2 e =e f e | a g f =e d c | f e d c d c | B A B A G F | A G .F2 z2 | %108
 z6 | z f d' f' [d'f'] f | z f d' f' [d'f'] f | z f d' f' [d'f'] f | z f d' f' [d'f'] f | %113
 z f e' f' [e'f'] f | z f e' f' [e'f'] f | z f e' f' [e'f'] f | z f e' f' [e'f'] f | %117
 z a c' a' [c'a'] a | z g c' g' [c'g'] g | z ^f c' ^f' [e'f'] f | z f e' f' [e'f'] f | %121
 z f d' f' [d'f'] f | z f b f' [bf'] f | z f e' f' [e'f'] f | z f e' f' [e'f'] f | %125
 z f d' f' [d'f'] f | z f d' f' [d'f'] f | z f d' f' [d'f'] f | z f d' f' [d'f'] f | %129
 z g c' g' [c'g'] g | z g d' g' [d'g'] g | .[gc'g']2 z2 z2 | G ^F G =B c e | ^f4 g2- | g2 a4 | %135
 c'4 b2- | b2 d'4 | e'4 d'2- | d'2 c'4 | b2 a b f d | z6 | z6 | z6 | z6 | z2 z2 b2 | f'4 b2 | %146
 z2 z2 b2 | e'4 b2 | z2 z2 g2 | b2 f2 c'2 | b2 f2 c'2 | b2 ^f2 g2 | d2 e2 b2 | f'4 b2 | z2 z2 b2 | %155
 e'4 b2 | z2 z2 b2 | d'2 c'2 b2 | a2 e'2 d'2 | g2 z2 z2 | z2 z2 a b | f'4 b2 | z2 z2 b2 | e'4 b2 | %164
 z2 z2 g2 | b2 f2 c'2 | b2 f2 c'2 | b2 ^f2 g2 | d2 e2 b2 | f'4 b2 | z2 z2 b2 | e'4 b2 | z2 z2 B2 | %173
 c2 B2 A2 | G2 A2 B2 | c2 B2 A2 | d2 e2 (3F G A | B6 | A6 | B4 .G2 | A2 B2 .G2 | A4 c2 | d4 .=B2 | %183
 c6- | c6 | f6 | =e6 | e4 .c2 | e2 d2 .c2 | g4 .f2 | e4 .d2 | d2 c2 =B2 | .c2 G2 A2 | B6 | A6 | %195
 B4 .G2 | A2 B2 .G2 | A4 .c2 | c4 .=B2 | c6- | c6 | d4 e2- | e2 =e4 | g4 f2- | f2 a4 | b4 a2- | %206
 a2 g4 | f2 =e f a g | f d3 z2 | z2 f4 | g4 a2 | b2 _d =d e d | .f2 =B c d c | .d2 A B c B | %214
 d c B A B G | .F2 =e f g f | a g f =e f _d | .d2 f4 | g4 a2 | b2 _d =d e d | .f2 =B c d c | %221
 .d2 A B c B | d c B A G F | z2 e =e f e | a g f =e d c | .f2 f4 | g4 a2 | b2 _d =d e d | %228
 .f2 =B c d c | .d2 A B c B | d c B A B G | .F2 =e f g f | a g f =e f _d | .d2 f4 | g4 a2 | %235
 b2 _d =d e d | .f2 =B c d c | .d2 A B c B | d c B A G F | z2 e =e f e | a g f =e d c | %241
 f e d c d c | B A B A G F | A G .F2 z2 | z6 | z f d' f' [d'f'] f | z f d' f' [d'f'] f | %247
 z f d' f' [d'f'] f | z f d' f' [d'f'] f | z f e' f' [e'f'] f | z f e' f' [e'f'] f | %251
 z f e' f' [e'f'] f | z f e' f' [e'f'] f | z a c' a' [c'a'] a | z g c' g' [c'g'] g | %255
 z ^f c' ^f' [e'f'] f | z f e' f' [e'f'] f | z f d' f' [d'f'] f | z f b f' [bf'] f | %259
 z f e' f' [e'f'] f | z f e' f' [e'f'] f | z f d' f' [d'f'] f | z f d' f' [d'f'] f | %263
 z f d' f' [d'f'] f | z f d' f' [d'f'] f | z g c' g' [c'g'] g | z g d' g' [d'g'] g | %267
 .[gc'g']2 z2 z2 | G ^F G =B c e | ^f4 g2- | g2 a4 | c'4 b2- | b2 d'4 | e'4 d'2- | d'2 g4 | %275
 ^f4 g2- | g2 c'4 | d'4 c'2- | c'2 f4 | =e4 f2- | f2 ^f4 | g4 a2- | a2 b4 | [_d_d']4 [=d=d']2- | %284
 [dd']2 [gg']4 | [ff']4 [ee']2- | [ee']2 [dd']4 | b2 _d =d =e f | a b d'4 | b2 _d =d =e f | %290
 a b d'4 | b2 [ad']2 b2 | [ad']2 b2 [ad']2 | b2 [ad']2 b2 | [ad']2 b2 [ad']2 | b4 z2 | [bb']4 z2 | %297
 z6 |] %298
V:2
 B3 F G A | B3 F G A | B3 F G A | B2 _A2 G2 | c3 G A =B | c3 G A =B | c3 G A =B | c2 B2 A2 | %8
 d3 A =B _d | d4 f d | e3 B c d | e4 g e | =e3 =B c d | =e3 =B c d | =e3 =B c d | =e3 c d e | %16
 f2 .[Ac]2 .[Ac]2 | F2 .[_A=B]2 .[AB]2 | F2 .[GB]2 .[GB]2 | F2 .[Ac]2 .[Ac]2 | F2 .[Ac]2 .[Ac]2 | %21
 F2 .[_A=B]2 .[AB]2 | F2 .[GB]2 .[GB]2 | F2 .[Ac]2 .[Ac]2 | F2 .[_A=B]2 .[AB]2 | F2 .[Ac]2 .[Ac]2 | %26
 F2 .[_A=B]2 .[AB]2 | F2 .[Ac]2 .[Ac]2 | z2 z2 f c | A4 c A | F4 A F | C4 F C | F2 F2 F2 | %33
 [FAc]2 [FAc]2 [FAc]2 | F2 [B_df]2 [GBf]2 | [Acf]2 z2 z2 | z6 | z2 .[DF]2 .[DF]2 | %38
 z2 .[DF]2 .[DF]2 | z2 .[DF]2 .[DF]2 | z2 .[DF]2 .[DF]2 | z2 .[DF]2 .[DF]2 | z2 .[DF]2 .[DF]2 | %43
 z2 .[DF]2 .[DF]2 | z2 .[DF]2 .[DF]2 | z2 .[EF]2 .[EF]2 | z2 .[EF]2 .[EF]2 | z2 .[EF]2 .[EF]2 | %48
 z2 .[EF]2 .[EF]2 | z2 .[Ac]2 .[Ac]2 | z2 .[Gc]2 .[Gc]2 | z2 .[^Fc]2 .F2 | z2 .[EF]2 .[EF]2 | %53
 z2 .[Bd]2 .[Bd]2 | z2 .[FB]2 .[FB]2 | z2 .[EF]2 .[EF]2 | z2 .[EF]2 .[EF]2 | z2 .[DF]2 .[DF]2 | %58
 z2 .[DF]2 .[DF]2 | z2 .[DF]2 .[DF]2 | z2 .[DF]2 .[DF]2 | z2 .F2 .[FA]2 | z2 .[F_A]2 .[FA]2 | %63
 z2 .[FA]2 .[FA]2 | z2 .[FA]2 .[FA]2 | D4 E2- | E2 =E4 | G4 F2- | F2 A4 | B4 A2- | A2 G4 | %71
 F2 z2 z2 | z2 c d c A | .F2 F4 | G4 A2 | B2 z2 z2 | c2 z2 z2 | [FB]2 z2 z2 | .F2 .F2 ._D2 | %79
 .C2 =E F G F | A G F =E .F2 | .[FB]2 F4 | G4 A2 | B2 z2 z2 | c2 z2 z2 | [FB]2 z2 z2 | z2 .D2 .D2 | %87
 [C=E]2 _E =E F E | A G F =E z2 | .F2 F4 | G4 A2 | B2 z2 z2 | c2 z2 z2 | [FB]2 z2 z2 | %94
 .F2 .F2 ._D2 | .C2 =E F G F | A G F =E .F2 | .[FB]2 F4 | G4 A2 | B2 z2 z2 | c2 z2 z2 | %101
 [FB]2 z2 z2 | z2 .D2 .D2 | [C=E]2 _E =E F E | A G F =E z2 | .F2 z2 z2 | z6 | z2 z E G F | %108
 E D F E z2 | z2 .[DFd]2 .[DFd]2 | z2 .[DFd]2 .[DFd]2 | z2 .[DFd]2 .[DFd]2 | z2 .[DFd]2 .[DFd]2 | %113
 z2 .[EFd]2 .[EFd]2 | z2 .[EFd]2 .[EFd]2 | z2 .[EFd]2 .[EFd]2 | z2 .[EFd]2 .[EFd]2 | %117
 z2 .[Ac]2 .[Ac]2 | z2 .[Gc]2 .[Gc]2 | z2 .[^Fc]2 .[Fc]2 | z2 .[Fe]2 .[Fe]2 | z2 .[Bd]2 .[Bd]2 | %122
 z2 .[FB]2 .[FB]2 | z2 .[Gc]2 .[Gc]2 | z2 .[EFe]2 .[EFe]2 | z2 .[DFd]2 .[DFd]2 | %126
 z2 .[DFd]2 .[DFd]2 | z2 .[DFd]2 .[DFd]2 | z2 .[DFd]2 .[DFd]2 | z2 .[EGe]2 .[EGe]2 | %130
 z2 .[Fd]2 .[Fd]2 | .[Ge]2 z2 z2 | z6 | ^F4 G2- | G2 A4 | c4 B2- | B2 d4 | e4 d2- | d2 c4 | %139
 B2 z2 z2 | z6 | z6 | z6 | z6 | z6 | z2 z2 B2 | f4 B2 | z2 z2 B2 | e4 B2 | z2 z2 c2 | B4 c2 | %151
 B4 z2 | z6 | z2 z2 B2 | f4 B2 | z2 z2 B2 | e4 B2 | d2 c2 B2 | A2 e2 d2 | G2 z2 z2 | z d ^f g3 | %161
 z2 z2 B2 | f4 B2 | z2 z2 B2 | e4 B2 | z2 z2 c2 | B4 c2 | B4 z2 | z6 | z2 z2 B2 | f4 B2 | %171
 z2 z2 B2 | e6 | z2 .[EG]2 .[EG]2 | z2 .[EG]2 .[EG]2 | z2 .[EG]2 .[EG]2 | [^FA]2 [=FA]2 z2 | %177
 z2 .[DF]2 .[DF]2 | z2 .[DF]2 .[DF]2 | z2 .[DF]2 .[DF]2 | z2 .[DF]2 .[DF]2 | z2 .[EF]2 .[EF]2 | %182
 z2 .[EF]2 .[EF]2 | z2 .[EF]2 .[EF]2 | z2 .[EF]2 .[EF]2 | z2 .[Ac]2 .[Ac]2 | z2 .[Gc]2 .[Gc]2 | %187
 z2 .[^Fc]2 .F2 | z2 .[EF]2 .[EF]2 | z2 .[Bd]2 .[Bd]2 | z2 .[FB]2 .[FB]2 | z2 .[EF]2 .[EF]2 | %192
 z2 .[EF]2 .[EF]2 | z2 .[DF]2 .[DF]2 | z2 .[DF]2 .[DF]2 | z2 .[DF]2 .[DF]2 | z2 .[DF]2 .[DF]2 | %197
 z2 .F2 .[FA]2 | z2 .[F_A]2 .[FA]2 | z2 .[FA]2 .[FA]2 | z2 .[FA]2 .[FA]2 | D4 E2- | E2 =E4 | %203
 G4 F2- | F2 A4 | B4 A2- | A2 G4 | F2 z2 z2 | z2 c d c A | .F2 F4 | G4 A2 | B2 z2 z2 | c2 z2 z2 | %213
 [FB]2 z2 z2 | .F2 .F2 ._D2 | .C2 =E F G F | A G F =E .F2 | .[FB]2 F4 | G4 A2 | B2 z2 z2 | %220
 c2 z2 z2 | [FB]2 z2 z2 | z2 .D2 .D2 | [C=E]2 _E =E F E | A G F =E z2 | .F2 F4 | G4 A2 | B2 z2 z2 | %228
 c2 z2 z2 | [FB]2 z2 z2 | .F2 .F2 ._D2 | .C2 =E F G F | A G F =E .F2 | .[FB]2 F4 | G4 A2 | %235
 B2 z2 z2 | c2 z2 z2 | [FB]2 z2 z2 | z2 .D2 .D2 | [C=E]2 _E =E F E | A G F =E z2 | .F2 z2 z2 | z6 | %243
 z2 z E G F | E D F E z2 | z2 .[DFd]2 .[DFd]2 | z2 .[DFd]2 .[DFd]2 | z2 .[DFd]2 .[DFd]2 | %248
 z2 .[DFd]2 .[DFd]2 | z2 .[EFd]2 .[EFd]2 | z2 .[EFd]2 .[EFd]2 | z2 .[EFd]2 .[EFd]2 | %252
 z2 .[EFd]2 .[EFd]2 | z2 .[Ac]2 .[Ac]2 | z2 .[Gc]2 .[Gc]2 | z2 .[^Fc]2 .[Fc]2 | z2 .[Fe]2 .[Fe]2 | %257
 z2 .[Bd]2 .[Bd]2 | z2 .[FB]2 .[FB]2 | z2 .[Gc]2 .[Gc]2 | z2 .[EFe]2 .[EFe]2 | z2 .[DFd]2 .[DFd]2 | %262
 z2 .[DFd]2 .[DFd]2 | z2 .[DFd]2 .[DFd]2 | z2 .[DFd]2 .[DFd]2 | z2 .[EGe]2 .[EGe]2 | %266
 z2 .[Fd]2 .[Fd]2 | .[Ge]2 z2 z2 | z6 | ^F4 G2- | G2 A4 | c4 B2- | B2 d4 | e4 d2- | d2 G4 | %275
 ^F4 G2- | G2 c4 | d4 c2- | c2 F4 | =E4 F2- | F2 ^F4 | G4 A2- | A2 B4 | _D4 =D2- | D2 G4 | F4 E2- | %286
 E2 D4 | B2 z2 z2 | A B d4 | B2 z2 z2 | A B d4 | B2 [Gd]2 B2 | [Gd]2 B2 [Gd]2 | B2 [Gd]2 B2 | %294
 [Gd]2 B2 [Gd]2 | B4 z2 | [Bdf]4 z2 | z6 |] %298
V:3
 z2 [F,B,D]4- | [F,B,D]2 [F,B,D]4- | [F,B,D]2 [F,B,D]4- | [F,B,D]2 .[F,B,D]2 .[F,=B,D]2 | %4
 z2[K:treble] [G,CE]4- | [G,CE]2 [G,CE]4- | [G,CE]2 [G,CE]4- | [G,CE]2 .[G,CE]2 .[G,_D=E]2 | %8
 z2 [F,A,DF]4- | [F,A,DF]2 [F,A,DF]4 | z2 [G,B,EG]4- | [G,B,EG]2 [G,B,EG]4 | z2 [B,C=EB]4- | %13
 [B,CEB]2 [B,C=EB]4- | [B,CEB]2 [B,C=EB]4- | [B,CEB]2 [B,C=EB]4 |[K:bass] F,2 E4 | F,2 D4 | %18
 F,2 _D4 | C2 A,2 F,2 | F,2 E4 | F,2 D4 | F,2 _D4 | C2 A,2 F,2 | _D2 _A,2 F,2 | C2 A,2 F,2 | %26
 _D2 _A,2 F,2 | C2 A,2 F,2 | z2 z2[K:treble] [A,CF]2 | z2 z2[K:bass] [F,A,C]2 | z2 z2 [C,F,A,]2 | %31
 z2 z2 [C,F,A,]2 | z2 [F,A,C]2 [F,A,C]2 | [F,A,C]2 [F,A,C]2 [F,A,C]2 | %34
 [F,A,C]2 [F,B,_D]2 [F,G,B,]2 | [F,A,C]2 z2 z2 | z6 | z2 .F,2 .F,2 | z2 .F,2 .F,2 | z2 .F,2 .F,2 | %40
 z2 .F,2 .F,2 | B,6 | A,6 | B,4 .G,2 | A,2 B,2 .G,2 | A,4[K:treble] C2 | D4 .=B,2 | C6- | C6 | F6 | %50
 =E6 | E4 .C2 | E2 D2 .C2 | G4 .F2 | E4 .D2 | D2 C2[K:bass] =B,2 | .C2 G,2 A,2 | B,6 | A,6 | %59
 B,4 .G,2 | A,2 B,2 .G,2 | A,4[K:treble] .C2 | C4 .=B,2 | C6- | C6 | %65
 z2[K:bass] .[^F,A,C]2 .[F,A,C]2 | z2 .[G,B,C]2 .[G,B,C]2 | z2 .[F,A,C]2 .[F,A,C]2 | %68
 z2 .[F,A,C]2 .[F,A,C]2 | z2 .[F,B,D]2 .[F,B,D]2 | z2 .[=E,B,C]2 .[E,B,C]2 | .[F,A,C]2 z2 z2 | z6 | %73
 z2 F,4 | [F,F]4 [F,E]2 | [F,D]2 _D[K:treble] =D E D | .F2 D E F E | .D2[K:bass] A, B, C B, | %78
 D C B, A, B, G, | .A,2 z2 z2 |[K:treble] .E2 .E2 E _D | .D2[K:bass] F,4 | [F,F]4 [F,E]2 | %83
 [F,D]2 _D[K:treble] =D E D | .F2 =B, C D C | .D2[K:bass] A, B, C B, | D C B, A, G, F, | %87
 .=E,2 z2 z2 |[K:treble] .[B,C]2 .[B,C]2 [B,D] C | [A,C]2[K:bass] F,4 | [F,F]4 [F,E]2 | %91
 [F,D]2 _D[K:treble] =D E D | .F2 D E F E | .D2[K:bass] A, B, C B, | D C B, A, B, G, | .A,2 z2 z2 | %96
[K:treble] .E2 .E2 E _D | .D2[K:bass] F,4 | [F,F]4 [F,E]2 | [F,D]2 _D[K:treble] =D E D | %100
 .F2 =B, C D C | .D2[K:bass] A, B, C B, | D C B, A, G, F, | .=E,2 z2 z2 | %104
[K:treble] .[B,C]2 .[B,C]2 [B,D] C | .[A,C]2 z2[K:bass] A,,2 | B,,2 C,2 D,2 | E,2 F,2 G,2 | %108
 A,2 B,2 D C | B,6 | A,6 | B,4 G,2 | A,2 B,2 G,2 | A,4[K:treble] C2 | D4 =B,2 | C6- | C6 | F6 | %118
 =E6 | E4 C2 | E2 D2 C2 | G4 F2 | E4 D2 | D2 C2[K:bass] =B,2 | C2 G,2 A,2 | B,6 | A,6 | B,4 G,2 | %128
 A,2 B,2 =B,2 | C4 A,2 | D4 =B,2 | .[G,E]2 G, =B, C E | G, ^F, G, =B, C E | z2 .[G,CE]2 z2 | %134
 .[G,B,_D]2 z2 .[G,B,D]2 | z2 .[F,B,D]2 z2 | .[F,B,D]2 z2 .[G,=B,D]2 | z2 .[G,CE]2 z2 | %138
 .[F,A,D]2 z2 .[F,A,E]2 | .[F,B,D]2 z2 z2 |[K:treble] B2 A B F D | z2 A B F D | z2 A B G E | %143
 z2 A B G =E | z2 A B _A F | z2 B A _A F | z2 B A _A F | z2 B _A G F | z2 B _A G F | z2 B A _A F | %150
 z2 B A _A F | z2 B _A G F | z2 B _A G F | z2 B A _A F | z2 B A _A F | z2 B _A G F | z2 B _A G F | %157
 B,2 A B G D | C2 =B c ^F D | z2 A B G D | z2 A B G D | z2 B A _A F | z2 B A _A F | z2 B _A G F | %164
 z2 B _A G F | z2 B A _A F | z2 B A _A F | z2 B _A G F | z2 B _A G F | z2 B A _A F | z2 B A _A F | %171
 z2 B _A G F | z2 z2[K:bass] B,2 | C2 B,2 A,2 | G,2 A,2 B,2 | C2 B,2 A,2 | D2 E2 (3F, G, A, | B,6 | %178
 A,6 | B,4 .G,2 | A,2 B,2 .G,2 | A,4[K:treble] C2 | D4 .=B,2 | C6- | C6 | F6 | =E6 | E4 .C2 | %188
 E2 D2 .C2 | G4 .F2 | E4 .D2 | D2 C2[K:bass] =B,2 | .C2 G,2 A,2 | B,6 | A,6 | B,4 .G,2 | %196
 A,2 B,2 .G,2 | A,4[K:treble] .C2 | C4 .=B,2 | C6- | C6 | z2[K:bass] .[^F,A,C]2 .[F,A,C]2 | %202
 z2 .[G,B,C]2 .[G,B,C]2 | z2 .[F,A,C]2 .[F,A,C]2 | z2 .[F,A,C]2 .[F,A,C]2 | %205
 z2 .[F,B,D]2 .[F,B,D]2 | z2 .[=E,B,C]2 .[E,B,C]2 | .[F,A,C]2 z2 z2 | z6 | z2 F,4 | [F,F]4 [F,E]2 | %211
 [F,D]2 _D[K:treble] =D E D | .F2 D E F E | .D2[K:bass] A, B, C B, | D C B, A, B, G, | .A,2 z2 z2 | %216
[K:treble] .E2 .E2 E _D | .D2[K:bass] F,4 | [F,F]4 [F,E]2 | [F,D]2 _D[K:treble] =D E D | %220
 .F2 =B, C D C | .D2[K:bass] A, B, C B, | D C B, A, G, F, | .=E,2 z2 z2 | %224
[K:treble] .[B,C]2 .[B,C]2 [B,D] C | [A,C]2[K:bass] F,4 | [F,F]4 [F,E]2 | %227
 [F,D]2 _D[K:treble] =D E D | .F2 D E F E | .D2[K:bass] A, B, C B, | D C B, A, B, G, | .A,2 z2 z2 | %232
[K:treble] .E2 .E2 E _D | .D2[K:bass] F,4 | [F,F]4 [F,E]2 | [F,D]2 _D[K:treble] =D E D | %236
 .F2 =B, C D C | .D2[K:bass] A, B, C B, | D C B, A, G, F, | .=E,2 z2 z2 | %240
[K:treble] .[B,C]2 .[B,C]2 [B,D] C | .[A,C]2 z2[K:bass] A,,2 | B,,2 C,2 D,2 | E,2 F,2 G,2 | %244
 A,2 B,2 D C | B,6 | A,6 | B,4 G,2 | A,2 B,2 G,2 | A,4[K:treble] C2 | D4 =B,2 | C6- | C6 | F6 | %254
 =E6 | E4 C2 | E2 D2 C2 | G4 F2 | E4 D2 | D2 C2[K:bass] =B,2 | C2 G,2 A,2 | B,6 | A,6 | B,4 G,2 | %264
 A,2 B,2 =B,2 | C4 A,2 | D4 =B,2 | .[G,E]2 G, =B, C E | G, ^F, G, =B, C E | z2 .[G,CE]2 z2 | %270
 .[G,B,_D]2 z2 .[G,B,D]2 | z2 .[F,B,D]2 z2 | .[F,B,D]2 z2 .[F,B,D]2 | z2[K:treble] .[G,=B,D]2 z2 | %274
 .[G,=B,D]2 z2 .[G,B,D]2 | z2 .[G,C]2 z2 | .[G,=B,F]2 z2[K:bass] .[G,CE]2 | z2 .[F,A,E]2 z2 | %278
 .[F,A,E]2 z2 .[F,A,C]2 | z2 .[_A,B,]2 z2 | .[_A,B,D]2 z2 .[=A,B,]2 | z2 .[G,B,E]2 z2 | %282
 .[G,B,_D]2 z2 .[G,B,D]2 | z2 .[F,A,]2 z2 | .[F,B,]2 z2 .[F,A,C]2 | z2 .[G,C]2 z2 | %286
 .[G,C]2 z2 .[E,A,]2 | .[D,F,B,]2[K:treble] _D =D =E F | z2 z2[K:bass] [F,A,E]2 | %289
 [D,F,B,]2 _D =D =E[K:treble] F | z2 z2[K:bass] [F,A,E]2 | [F,D]2 [F,E]2 [F,D]2 | %292
 [F,E]2 [F,D]2 [F,E]2 | [F,D]2 [F,E]2 [F,D]2 | [F,E]2 [F,D]2 [F,E]2 | [F,D]4 z2 | %296
[K:treble] [DF]4 z2 | B,6 |] %298
V:4
 [F,,,F,,]2 z2 z2 | [F,,,F,,]2 z2 z2 | [F,,,F,,]2 z2 z2 | [F,,,F,,]2 z2 z2 | [F,,,F,,]2 z2 z2 | %5
 [F,,,F,,]2 z2 z2 | [F,,,F,,]2 z2 z2 | [F,,,F,,]2 z2 z2 | [F,,,F,,]2 z2 z2 | z6 | %10
 [F,,,F,,]2 z2 z2 | z6 | [F,,,F,,]2 z2 z2 | [F,,,F,,]2 z2 z2 | [F,,,F,,]2 z2 z2 | %15
 [F,,,F,,]2 z2 z2 | [F,,,F,,]2 E,4 | [F,,,F,,]2 D,4 | [F,,,F,,]2 _D,4 | C,2 A,,2 F,,2 | %20
 [F,,,F,,]2 E,4 | [F,,,F,,]2 D,4 | [F,,,F,,]2 _D,4 | C,2 A,,2 F,,2 | _D,2 _A,,2 F,,2 | %25
 C,2 A,,2 F,,2 | _D,2 _A,,2 F,,2 | C,2 A,,2 F,,2 | z2 z2 [F,,,F,,]2 | z2 z2 [F,,,F,,]2 | %30
 z2 z2 [F,,,F,,]2 | z2 z2 [F,,,F,,]2 | z2 [F,,,F,,]2 [F,,,F,,]2 | %33
 [F,,,F,,]2 [F,,,F,,]2 [F,,,F,,]2 | [F,,,F,,]2 [F,,,F,,]2 [F,,,F,,]2 | [F,,,F,,]2 z2 z2 | z6 | %37
 .[B,,,B,,]2 z2 z2 | .[F,,,F,,]2 z2 z2 | .[B,,,B,,]2 z2 z2 | .[F,,,F,,]2 z2 z2 | %41
 .[B,,,B,,]2 z2 z2 | .[F,,,F,,]2 z2 z2 | .[B,,,B,,]2 z2 z2 | .[F,,,F,,]2 z2 z2 | .[C,,C,]2 z2 z2 | %46
 .[A,,,A,,]2 z2 z2 | .[_A,,,_A,,]2 z2 z2 | .[A,,,A,,]2 z2 z2 | .[F,,,F,,]2 z2 z2 | %50
 .[G,,,G,,]2 z2 z2 | .[_A,,,_A,,]2 z2 z2 | .[A,,,A,,]2 z2 z2 | .[B,,,B,,]2 z2 z2 | %54
 .[F,,,F,,]2 z2 z2 | .[A,,,A,,]2 z2 z2 | [F,,,F,,]2 z2 z2 | [B,,,B,,]2 z2 z2 | .[F,,,F,,]2 z2 z2 | %59
 .[B,,,B,,]2 z2 z2 | .[D,,D,]2 z2 z2 | .[C,,C,]2 z2 z2 | .[D,,D,]2 z2 .[_D,,_D,]2 | %63
 .[C,,C,]2 z2 z2 | .[C,,C,]2 z2 z2 | .[C,,C,]2 z2 z2 | .[C,,C,]2 z2 z2 | .[C,,C,]2 z2 z2 | %68
 .[C,,C,]2 z2 z2 | .[C,,C,]2 z2 z2 | .[C,,C,]2 z2 z2 | .F,,2 z2 z2 | z6 | z2 z2 [D,,D,]2- | %74
 [D,,D,]2 [_D,,_D,]2 [C,,C,]2 | [B,,,B,,]2 z2 z2 | [A,,F,]2 z2 z2 | [B,,F,]2 z2 z2 | %78
 .[B,,,B,,]2 .[D,,D,]2 .[=E,,=E,]2 | .[F,,F,]2 z2 z2 | .[F,,F,]2 .[G,,G,]2 .[A,,A,]2 | %81
 .[B,,B,]2 z2 [D,,D,]2- | [D,,D,]2 [_D,,_D,]2 [C,,C,]2 | [B,,,B,,]2 z2 z2 | [A,,F,]2 z2 z2 | %85
 [B,,F,]2 z2 z2 | .[B,,,B,,]2 .[G,,,G,,]2 .[B,,,B,,]2 | .[C,,C,]2 z2 z2 | %88
 .[C,,C,]2 .[D,,D,]2 .[=E,,=E,]2 | .[F,,F,]2 z2 [D,,D,]2- | [D,,D,]2 [_D,,_D,]2 [C,,C,]2 | %91
 [B,,,B,,]2 z2 z2 | [A,,F,]2 z2 z2 | [B,,F,]2 z2 z2 | .[B,,,B,,]2 .[D,,D,]2 .[=E,,=E,]2 | %95
 .[F,,F,]2 z2 z2 | .[F,,F,]2 .[G,,G,]2 .[A,,A,]2 | .[B,,B,]2 z2 [D,,D,]2- | %98
 [D,,D,]2 [_D,,_D,]2 [C,,C,]2 | [B,,,B,,]2 z2 z2 | [A,,F,]2 z2 z2 | [B,,F,]2 z2 z2 | %102
 .[B,,,B,,]2 .[G,,,G,,]2 .[B,,,B,,]2 | .[C,,C,]2 z2 z2 | .[C,,C,]2 .[D,,D,]2 .[=E,,=E,]2 | %105
 [F,,F,]2 z2 F,,2 | G,,2 A,,2 B,,2 | C,2 D,2 E,2 | F,2 G,2 A,2 | .[B,,,B,,]2 z2 z2 | %110
 .[F,,,F,,]2 z2 z2 | .[B,,,B,,]2 z2 z2 | .[F,,,F,,]2 z2 z2 | .[C,,C,]2 z2 z2 | .[A,,,A,,]2 z2 z2 | %115
 .[_A,,,_A,,]2 z2 z2 | .[A,,,A,,]2 z2 z2 | .[F,,,F,,]2 z2 z2 | .[G,,,G,,]2 z2 z2 | %119
 .[_A,,,_A,,]2 z2 z2 | .[A,,,A,,]2 z2 z2 | .[B,,,B,,]2 z2 z2 | .[F,,,F,,]2 z2 z2 | %123
 .[A,,,A,,]2 z2 z2 | .[F,,,F,,]2 z2 z2 | .[B,,,B,,]2 z2 z2 | .[F,,,F,,]2 z2 z2 | %127
 .[B,,,B,,]2 z2 z2 | .[D,,D,]2 z2 z2 | .[E,,E,]2 z2 z2 | .[D,,D,]2 z2 z2 | .[C,,C,]2 z2 z2 | z6 | %133
 z2 .[E,,,E,,]2 z2 | .[=E,,,=E,,]2 z2 .[E,,,E,,]2 | z2 .[F,,,F,,]2 z2 | %136
 .[F,,,F,,]2 z2 .[F,,,F,,]2 | z2 .[F,,,F,,]2 z2 | .[F,,,F,,]2 z2 .[F,,,F,,]2 | .[B,,,B,,]2 z2 z2 | %140
 [B,,D,F,B,]2 z2 z2 | [B,,D,F,B,]2 z2 z2 | [C,E,G,B,]2 z2 z2 | [_D,=E,G,B,]2 z2 z2 | %144
 [D,F,B,]2 z2 z2 | [D,B,]2 .[_A,B,]2 .[A,B,]2 | [B,,B,]2 .[_A,B,]2 .[A,B,]2 | %147
 [E,B,]2 .[G,B,]2 .[G,B,]2 | [B,,B,]2 .[G,B,]2 .[G,B,]2 | [D,B,]2 .[_A,B,]2 .[A,B,]2 | %150
 [B,,B,]2 .[_A,B,]2 .[A,B,]2 | [E,B,]2 .[G,B,]2 .[G,B,]2 | [B,,B,]2 .[G,B,]2 .[G,B,]2 | %153
 [D,B,]2 .[_A,B,]2 .[A,B,]2 | [B,,B,]2 .[_A,B,]2 .[A,B,]2 | [E,B,]2 .[G,B,]2 .[G,B,]2 | %156
 [E,B,]2 .[G,_D]2 .G,2 | [D,,D,]2 .[B,D]2 .[B,D]2 | [D,,D,]2 .[^F,C]2 .[D,C]2 | %159
 [G,,B,]2 .[G,D]2 .[B,D]2 | [G,B,]2 .[B,D]2 .[G,B,]2 | [D,B,]2 .[_A,B,]2 .[A,B,]2 | %162
 [B,,B,]2 .[_A,B,]2 .[A,B,]2 | [E,B,]2 .[G,B,]2 .[G,B,]2 | [B,,B,]2 .[G,B,]2 .[G,B,]2 | %165
 [D,B,]2 .[_A,B,]2 .[A,B,]2 | [B,,B,]2 .[_A,B,]2 .[A,B,]2 | [E,B,]2 .[G,B,]2 .[G,B,]2 | %168
 [B,,B,]2 .[G,B,]2 .[G,B,]2 | [D,B,]2 .[_A,B,]2 .[A,B,]2 | [B,,B,]2 .[_A,B,]2 .[A,B,]2 | %171
 [E,B,]2 .[G,B,]2 .[G,B,]2 | [B,,B,]2 .[E,G,]2 .[E,G,]2 | E,2 .G,2 .G,2 | E,2 .G,2 .G,2 | %175
 E,2 .G,2 .G,2 | D,2 [C,F,C]2 z2 | .[B,,,B,,]2 z2 z2 | .[F,,,F,,]2 z2 z2 | .[B,,,B,,]2 z2 z2 | %180
 .[F,,,F,,]2 z2 z2 | .[C,,C,]2 z2 z2 | .[A,,,A,,]2 z2 z2 | .[_A,,,_A,,]2 z2 z2 | %184
 .[A,,,A,,]2 z2 z2 | .[F,,,F,,]2 z2 z2 | .[G,,,G,,]2 z2 z2 | .[_A,,,_A,,]2 z2 z2 | %188
 .[A,,,A,,]2 z2 z2 | .[B,,,B,,]2 z2 z2 | .[F,,,F,,]2 z2 z2 | .[A,,,A,,]2 z2 z2 | %192
 .[F,,,F,,]2 z2 z2 | .[B,,,B,,]2 z2 z2 | .[F,,,F,,]2 z2 z2 | .[B,,,B,,]2 z2 z2 | .[D,,D,]2 z2 z2 | %197
 .[C,,C,]2 z2 z2 | .[D,,D,]2 z2 .[_D,,_D,]2 | .[C,,C,]2 z2 z2 | .[C,,C,]2 z2 z2 | .[C,,C,]2 z2 z2 | %202
 .[C,,C,]2 z2 z2 | .[C,,C,]2 z2 z2 | .[C,,C,]2 z2 z2 | .[C,,C,]2 z2 z2 | .[C,,C,]2 z2 z2 | %207
 .F,,2 z2 z2 | z6 | z2 z2 [D,,D,]2- | [D,,D,]2 [_D,,_D,]2 [C,,C,]2 | [B,,,B,,]2 z2 z2 | %212
 [A,,F,]2 z2 z2 | [B,,F,]2 z2 z2 | .[B,,,B,,]2 .[D,,D,]2 .[=E,,=E,]2 | .[F,,F,]2 z2 z2 | %216
 .[F,,F,]2 .[G,,G,]2 .[A,,A,]2 | .[B,,B,]2 z2 [D,,D,]2- | [D,,D,]2 [_D,,_D,]2 [C,,C,]2 | %219
 [B,,,B,,]2 z2 z2 | [A,,F,]2 z2 z2 | [B,,F,]2 z2 z2 | .[B,,,B,,]2 .[G,,,G,,]2 .[B,,,B,,]2 | %223
 .[C,,C,]2 z2 z2 | .[C,,C,]2 .[D,,D,]2 .[=E,,=E,]2 | .[F,,F,]2 z2 [D,,D,]2- | %226
 [D,,D,]2 [_D,,_D,]2 [C,,C,]2 | [B,,,B,,]2 z2 z2 | [A,,F,]2 z2 z2 | [B,,F,]2 z2 z2 | %230
 .[B,,,B,,]2 .[D,,D,]2 .[=E,,=E,]2 | .[F,,F,]2 z2 z2 | .[F,,F,]2 .[G,,G,]2 .[A,,A,]2 | %233
 .[B,,B,]2 z2 [D,,D,]2- | [D,,D,]2 [_D,,_D,]2 [C,,C,]2 | [B,,,B,,]2 z2 z2 | [A,,F,]2 z2 z2 | %237
 [B,,F,]2 z2 z2 | .[B,,,B,,]2 .[G,,,G,,]2 .[B,,,B,,]2 | .[C,,C,]2 z2 z2 | %240
 .[C,,C,]2 .[D,,D,]2 .[=E,,=E,]2 | [F,,F,]2 z2 F,,2 | G,,2 A,,2 B,,2 | C,2 D,2 E,2 | F,2 G,2 A,2 | %245
 .[B,,,B,,]2 z2 z2 | .[F,,,F,,]2 z2 z2 | .[B,,,B,,]2 z2 z2 | .[F,,,F,,]2 z2 z2 | .[C,,C,]2 z2 z2 | %250
 .[A,,,A,,]2 z2 z2 | .[_A,,,_A,,]2 z2 z2 | .[A,,,A,,]2 z2 z2 | .[F,,,F,,]2 z2 z2 | %254
 .[G,,,G,,]2 z2 z2 | .[_A,,,_A,,]2 z2 z2 | .[A,,,A,,]2 z2 z2 | .[B,,,B,,]2 z2 z2 | %258
 .[F,,,F,,]2 z2 z2 | .[A,,,A,,]2 z2 z2 | .[F,,,F,,]2 z2 z2 | .[B,,,B,,]2 z2 z2 | %262
 .[F,,,F,,]2 z2 z2 | .[B,,,B,,]2 z2 z2 | .[D,,D,]2 z2 z2 | .[E,,E,]2 z2 z2 | .[D,,D,]2 z2 z2 | %267
 .[C,,C,]2 z2 z2 | z6 | z2 .[E,,,E,,]2 z2 | .[=E,,,=E,,]2 z2 .[E,,,E,,]2 | z2 .[F,,,F,,]2 z2 | %272
 .[F,,,F,,]2 z2 .[F,,,F,,]2 | z2 .[F,,,F,,]2 z2 | .[F,,,F,,]2 z2 .[F,,F,]2 | z2 .[E,,E,]2 z2 | %276
 .[D,,D,]2 z2 .[C,,C,]2 | z2 .[F,,,F,,]2 z2 | .[F,,,F,,]2 z2 .[E,,E,]2 | z2 .[D,,E,]2 z2 | %280
 .[B,,,B,,]2 z2 .[D,,D,]2 | z2 .[E,,E,]2 z2 | .[=E,,F,]2 z2 .[E,,E,]2 | z2 .[F,,,F,,]2 z2 | %284
 .[F,,,F,,]2 z2 .[F,,,F,,]2 | z2 .[F,,,F,,]2 z2 | .[F,,,F,,]2 z2 .[F,,,F,,]2 | .[B,,,B,,]2 z2 z2 | %288
 z2 z2 [F,,,F,,]2 | [B,,,B,,]2 z2 z2 | z2 z2 [F,,,F,,]2 | [B,,,B,,]2 [F,,,F,,]2 [B,,,B,,]2 | %292
 [F,,,F,,]2 [B,,,B,,]2 [F,,,F,,]2 | [B,,,B,,]2 [F,,,F,,]2 [B,,,B,,]2 | %294
 [F,,,F,,]2 [B,,,B,,]2 [F,,,F,,]2 | [B,,,B,,]4 z2 | [B,,B,]4 z2 | [B,,,B,,]6 |] %298
V:5
[K:C] c3 G AB | c3 G AB | c3 G AB | c2 _B2 A2 | d3 A B^c | d3 A B^c | d3 A B^c | d2 c2 B2 | %8
 e3 B ^c_e | eB BG z2 | f3 c de | fc cA z2 | ^f3 ^c de | ^f3 ^c de | ^f3 ^c de | ^f3 d ef | %16
 gd dB BG | g^c c_B BG | gc cA AG | gd dB BG | gd dB BG | g^c c_B BG | gc cA AG | gd dB BG | %24
 g^c c_B BG | gd dB BG | g^c c_B BG | gd dB BG | dB BG z2 | BG GD z2 | GD DB, z2 | DB, B,G, z2 | %32
 z B, B,D DG | GB Bd dg | g2 [c_eg]2 [Acg]2 | [Bdg]2 z2 z2 | z6 | z6 | z6 | z6 | z6 | C6 | B,6 | %43
 C4 .A,2 | B,2 C2 .A,2 | B,4 D2 | E4 .^C2 | D6- | D6 | G6 | ^F6 | F4 .D2 | F2 E2 .D2 | A4 .G2 | %54
 F4 .E2 | E2 D2 ^C2 | .D2 A,2 B,2 | C6 | B,6 | C4 .A,2 | B,2 C2 .A,2 | B,4 .D2 | D4 .^C2 | D6- | %64
 D6 | E4 F2- | F2 ^F4 | A4 G2- | G2 B4 | c4 B2- | B2 A4 | G2 ^FG BA | G E3 z2 | z2 G4 | A4 B2 | %75
 c2 _E=E FE | .G2 ^CD ED | .E2 B,C DC | ED CB, CA, | .G,2 ^FG AG | BA G^F G_E | .E2 G4 | A4 B2 | %83
 c2 _E=E FE | .G2 ^CD ED | .E2 B,C DC | ED CB, A,G, | z2 F^F GF | BA G^F ED | .G2 G4 | A4 B2 | %91
 c2 _E=E FE | .G2 ^CD ED | .E2 B,C DC | ED CB, CA, | .G,2 ^FG AG | BA G^F G_E | .E2 G4 | A4 B2 | %99
 c2 _E=E FE | .G2 ^CD ED | .E2 B,C DC | ED CB, A,G, | z2 F^F GF | BA G^F ED | GF ED ED | %106
 CB, CB, A,G, | B,A, .G,2 z2 | z6 | z G eg [eg]G | z G eg [eg]G | z G eg [eg]G | z G eg [eg]G | %113
 z G fg [fg]G | z G fg [fg]G | z G fg [fg]G | z G fg [fg]G | z B db [db]B | z A da [da]A | %119
 z ^G d^g [fg]G | z G fg [fg]G | z G eg [eg]G | z G cg [cg]G | z G fg [fg]G | z G fg [fg]G | %125
 z G eg [eg]G | z G eg [eg]G | z G eg [eg]G | z G eg [eg]G | z A da [da]A | z A ea [ea]A | %131
 .[Ada]2 z2 z2 | A,^G, A,^C DF | ^G4 A2- | A2 B4 | d4 c2- | c2 e4 | f4 e2- | e2 d4 | c2 Bc GE | %140
 z6 | z6 | z6 | z6 | z2 z2 c2 | g4 c2 | z2 z2 c2 | f4 c2 | z2 z2 A2 | c2 G2 d2 | c2 G2 d2 | %151
 c2 ^G2 A2 | E2 F2 c2 | g4 c2 | z2 z2 c2 | f4 c2 | z2 z2 c2 | e2 d2 c2 | B2 f2 e2 | A2 z2 z2 | %160
 z2 z2 Bc | g4 c2 | z2 z2 c2 | f4 c2 | z2 z2 A2 | c2 G2 d2 | c2 G2 d2 | c2 ^G2 A2 | E2 F2 c2 | %169
 g4 c2 | z2 z2 c2 | f4 c2 | z2 z2 C2 | D2 C2 B,2 | A,2 B,2 C2 | D2 C2 B,2 | E2 F2 (3G,A,B, | C6 | %178
 B,6 | C4 .A,2 | B,2 C2 .A,2 | B,4 D2 | E4 .^C2 | D6- | D6 | G6 | ^F6 | F4 .D2 | F2 E2 .D2 | %189
 A4 .G2 | F4 .E2 | E2 D2 ^C2 | .D2 A,2 B,2 | C6 | B,6 | C4 .A,2 | B,2 C2 .A,2 | B,4 .D2 | D4 .^C2 | %199
 D6- | D6 | E4 F2- | F2 ^F4 | A4 G2- | G2 B4 | c4 B2- | B2 A4 | G2 ^FG BA | G E3 z2 | z2 G4 | %210
 A4 B2 | c2 _E=E FE | .G2 ^CD ED | .E2 B,C DC | ED CB, CA, | .G,2 ^FG AG | BA G^F G_E | .E2 G4 | %218
 A4 B2 | c2 _E=E FE | .G2 ^CD ED | .E2 B,C DC | ED CB, A,G, | z2 F^F GF | BA G^F ED | .G2 G4 | %226
 A4 B2 | c2 _E=E FE | .G2 ^CD ED | .E2 B,C DC | ED CB, CA, | .G,2 ^FG AG | BA G^F G_E | .E2 G4 | %234
 A4 B2 | c2 _E=E FE | .G2 ^CD ED | .E2 B,C DC | ED CB, A,G, | z2 F^F GF | BA G^F ED | GF ED ED | %242
 CB, CB, A,G, | B,A, .G,2 z2 | z6 | z G eg [eg]G | z G eg [eg]G | z G eg [eg]G | z G eg [eg]G | %249
 z G fg [fg]G | z G fg [fg]G | z G fg [fg]G | z G fg [fg]G | z B db [db]B | z A da [da]A | %255
 z ^G d^g [fg]G | z G fg [fg]G | z G eg [eg]G | z G cg [cg]G | z G fg [fg]G | z G fg [fg]G | %261
 z G eg [eg]G | z G eg [eg]G | z G eg [eg]G | z G eg [eg]G | z A da [da]A | z A ea [ea]A | %267
 .[Ada]2 z2 z2 | A,^G, A,^C DF | ^G4 A2- | A2 B4 | d4 c2- | c2 e4 | f4 e2- | e2 A4 | ^G4 A2- | %276
 A2 d4 | e4 d2- | d2 G4 | ^F4 G2- | G2 ^G4 | A4 B2- | B2 c4 | [_E_e]4 [=E=e]2- | [Ee]2 [Aa]4 | %285
 [Gg]4 [Ff]2- | [Ff]2 [Ee]4 | c2 _E=E ^FG | Bc e4 | c2 _E=E ^FG | Bc e4 | c2 [Be]2 c2 | %292
 [Be]2 c2 [Be]2 | c2 [Be]2 c2 | [Be]2 c2 [Be]2 | c4 z2 | [cc']4 z2 | z6 |] %298

